X:2
T:Here's That Rainy Day
C:Jimmy Van Heusen
L:1/4
M:C
I:linebreak $
K:G
"G" D"F#7" D2 D ||[K:Bb]"Bb7" D F"E7" B d |"Eb" d3 c/=B/ |"Cm" c4 ||$[K:G]"Am" D"Bm" D2 D |
"C" D F"D7" A c |"G" B4- "Em" x4|"Dm" B2"G7" z G ||1$[K:Bb]"Cm" e2"CmM" z e |"Cm" e G"F7" ^G A |
"Bb" d2 F ^F |"Eb" G4 ||$[K:G]"Am" c2"AmM" z c |"Am" c E"D7" ^E F |"F7" B4- "E7" x4|"Eb7" B4 "D7" x4:|2$
"C" e e2 e |"F#ø" e A"Co" B c |"Bm" d2"Em" F G |"A7" A3 G |$"Am" D"Bm" D2 D |
"C" D F"D7" A B |"G6" G4- | G4 |]

